images/sprite/copyright.svg

<svg width="15" height="17" viewBox="0 0 15 17" fill="none" xmlns="http://www.w3.org/2000/svg">
<circle cx="7.5" cy="9.5" r="7" stroke="white"/>
<path d="M7.36328 12.2266C7.62109 12.2266 7.85938 12.1738 8.07812 12.0684C8.29688 11.9629 8.47656 11.8184 8.61719 11.6348C8.75781 11.4473 8.83789 11.2344 8.85742 10.9961H9.88867C9.86914 11.3711 9.74219 11.7207 9.50781 12.0449C9.27734 12.3652 8.97461 12.625 8.59961 12.8242C8.22461 13.0195 7.8125 13.1172 7.36328 13.1172C6.88672 13.1172 6.4707 13.0332 6.11523 12.8652C5.76367 12.6973 5.4707 12.4668 5.23633 12.1738C5.00586 11.8809 4.83203 11.5449 4.71484 11.166C4.60156 10.7832 4.54492 10.3789 4.54492 9.95312V9.70703C4.54492 9.28125 4.60156 8.87891 4.71484 8.5C4.83203 8.11719 5.00586 7.7793 5.23633 7.48633C5.4707 7.19336 5.76367 6.96289 6.11523 6.79492C6.4707 6.62695 6.88672 6.54297 7.36328 6.54297C7.85938 6.54297 8.29297 6.64453 8.66406 6.84766C9.03516 7.04688 9.32617 7.32031 9.53711 7.66797C9.75195 8.01172 9.86914 8.40234 9.88867 8.83984H8.85742C8.83789 8.57812 8.76367 8.3418 8.63477 8.13086C8.50977 7.91992 8.33789 7.75195 8.11914 7.62695C7.9043 7.49805 7.65234 7.43359 7.36328 7.43359C7.03125 7.43359 6.75195 7.5 6.52539 7.63281C6.30273 7.76172 6.125 7.9375 5.99219 8.16016C5.86328 8.37891 5.76953 8.62305 5.71094 8.89258C5.65625 9.1582 5.62891 9.42969 5.62891 9.70703V9.95312C5.62891 10.2305 5.65625 10.5039 5.71094 10.7734C5.76562 11.043 5.85742 11.2871 5.98633 11.5059C6.11914 11.7246 6.29688 11.9004 6.51953 12.0332C6.74609 12.1621 7.02734 12.2266 7.36328 12.2266Z" fill="white"/>
</svg>

<svg xmlns="http://www.w3.org/2000/svg" width="15" height="17" fill="none"><circle cx="7.5" cy="9.5" r="7" stroke="#fff"/><path fill="#fff" d="M7.363 12.227c.258 0 .496-.053.715-.159.219-.105.399-.25.54-.433.14-.188.22-.4.24-.639h1.03c-.019.375-.146.725-.38 1.049a2.6 2.6 0 0 1-.908.78 2.636 2.636 0 0 1-1.237.292c-.476 0-.892-.084-1.248-.252a2.473 2.473 0 0 1-.879-.691 3.088 3.088 0 0 1-.521-1.008 4.253 4.253 0 0 1-.17-1.213v-.246c0-.426.057-.828.17-1.207a3.08 3.08 0 0 1 .521-1.014c.235-.293.528-.523.88-.691.355-.168.77-.252 1.247-.252.496 0 .93.102 1.301.305.371.199.662.472.873.82.215.344.332.734.352 1.172H8.857a1.562 1.562 0 0 0-.222-.71 1.388 1.388 0 0 0-.516-.503 1.441 1.441 0 0 0-.756-.193c-.332 0-.611.066-.838.199-.222.129-.4.304-.533.527a2.462 2.462 0 0 0-.281.733 4.028 4.028 0 0 0-.082.814v.246c0 .277.027.55.082.82.055.27.146.514.275.733.133.219.31.394.534.527.226.13.507.194.843.194Z"/></svg>
